X:92
T: WAS WOELLN WIR AUF DEN ABEND THUN
N: E1120B
O: Europa, Mitteleuropa, Deutschland
R: Trink -, Zech - Lied
M: 4/4
L: 1/8
K: G
D2 | G2G2A2A2 | B2AGA2
c2 | B2G2F2EF | G4z2
D2 | G2G2A2A2 | B2AGA2
c2 | B2G2F2EF | G4z4 |
c2B2A2GA | B2AGA2
B2 | c2B2A2GA | B2AGA2z2 |
B2G2F2EF | G6

@@@ Tune index: 4776
